X: 3
T: Jim Anderson's Delight
C: Ronnie Cooper (1934-1982)
M: 6/8
L: 1/8
R: jig
F: http://www.thesession.org/tunes/display/7329/comments
K: A
|: a/f/ \
| eAA cBA | efg aga | fBB fga | bag agf \
| e2A cBA | efg a2f | edc dcB | cAA A2 :|
|: a/f/ \
| e2a c2a | efg aga | fBB fga | bag a2f \
|[1 e2a c2a | efg agf | edc dcB | cAA A2 :|
|[2 e2A cBA | efg agf | e2c dcB | cAA A2 |]

%%sep 1 1 500

